www/src/images/feature-icon-01.svg

<svg height="100" width="112" xmlns="http://www.w3.org/2000/svg" xmlns:xlink="http://www.w3.org/1999/xlink"><filter id="a" height="280%" width="280%" x="-90%" y="-90%"><feGaussianBlur in="SourceGraphic" stdDeviation="12"/></filter><linearGradient id="b" x1="99.316%" x2="0%" y1="21.974%" y2="69.777%"><stop offset="0" stop-color="#2c3039"/><stop offset=".48131" stop-color="#8a94a7"/><stop offset="1" stop-color="#2c3039"/></linearGradient><linearGradient id="c" x1="49.892%" x2="24.856%" y1=".428%" y2="100%"><stop offset="0" stop-color="#3b404c"/><stop offset="1" stop-color="#333843"/></linearGradient><g fill="none" fill-rule="evenodd"><path d="m35.521 6.938-23.481 28.905 48.939 16.136 23.481-28.906z" fill="#0270d7"/><path d="m20 65.494 15.822 8.506.178-47.494-15.824-8.506z" fill="#02cbb1"/><g transform="translate(28 31)"><path d="m1 0h40v40h-40z" fill="#1d2026" fill-opacity=".48" filter="url(#a)"/><path d="m11.261 54.752-9.71-18.785c-1.455-2.815-1.94-6.184-1.224-9.916 2.31-12.041 16.263-23.319 31.165-25.184 10.284-1.287 18.332 2.243 21.573 8.513l9.71 18.785c-3.242-6.27-11.29-9.8-21.573-8.514-14.902 1.867-28.855 13.142-31.166 25.186-.716 3.732-.23 7.1 1.225 9.915" fill="url(#b)"/><path d="m32.833 63.264c-14.9 1.866-25.108-6.384-22.797-18.428 2.31-12.043 16.264-23.319 31.166-25.184 14.901-1.866 25.108 6.384 22.798 18.428-2.311 12.043-16.264 23.319-31.167 25.184z" fill="url(#c)"/></g><g fill="#00bffb"><path d="m22.991 85.677.826-6.614-15.962 5.737-.825 6.616z"/><path d="m106.721 46.737 4.408-2.801-13.699-6.737-4.408 2.801z" fill-opacity=".32"/></g></g></svg>

<svg width="112" height="100" xmlns="http://www.w3.org/2000/svg" xmlns:xlink="http://www.w3.org/1999/xlink"><defs><filter x="-90%" y="-90%" width="280%" height="280%" filterUnits="objectBoundingBox" id="a"><feGaussianBlur stdDeviation="12" in="SourceGraphic"/></filter><linearGradient x1="99.316%" y1="21.974%" x2="0%" y2="69.777%" id="b"><stop stop-color="#2C3039" offset="0%"/><stop stop-color="#8A94A7" offset="48.131%"/><stop stop-color="#2C3039" offset="100%"/></linearGradient><linearGradient x1="49.892%" y1=".428%" x2="24.856%" y2="100%" id="d"><stop stop-color="#3B404C" offset="0%"/><stop stop-color="#333843" offset="100%"/></linearGradient><path d="M32.833 63.264c-14.9 1.866-25.108-6.384-22.797-18.428 2.31-12.043 16.264-23.319 31.166-25.184C56.103 17.786 66.31 26.036 64 38.08c-2.311 12.043-16.264 23.319-31.167 25.184z" id="c"/></defs><g fill="none" fill-rule="evenodd"><path fill="#0270D7" d="M35.521 6.938L12.04 35.843l48.939 16.136L84.46 23.073z"/><path fill="#02CBB1" d="M20 65.494L35.822 74 36 26.506 20.176 18z"/><g transform="translate(28 31)"><path fill-opacity=".48" fill="#1D2026" filter="url(#a)" d="M1 0h40v40H1z"/><path d="M11.261 54.752l-9.71-18.785C.096 33.152-.389 29.783.327 26.051 2.637 14.01 16.59 2.732 31.492.867 41.776-.42 49.824 3.11 53.065 9.38l9.71 18.785c-3.242-6.27-11.29-9.8-21.573-8.514C26.3 21.518 12.347 32.793 10.036 44.837c-.716 3.732-.23 7.1 1.225 9.915" fill="url(#b)"/><use fill="url(#d)" xlink:href="#c"/></g><path fill="#00BFFB" d="M22.991 85.677l.826-6.614L7.855 84.8l-.825 6.616z"/><path fill-opacity=".32" fill="#00BFFB" d="M106.721 46.737l4.408-2.801-13.699-6.737L93.022 40z"/></g></svg>
